!!!OTL: Wilhelmus van Nassouwe
!!!ARE: Europa, Mitteleuropa, Deutschland
!!!SCT: A0409A
!!!YEM: Copyright 1995, estate of Helmut Schaffrath.
**kern
*ICvox
*Ivox
*M4/4
*k[]
*C:
{4G
=1
4c
4c
4d
4d
=2
4e
8d
8e
4f
4e
=3
4d
4d
4c}
{4G
=4
4c
4c
4d
4d
=5
4e
8d
8e
4f
4e
=6
4d
4d
2c}
=7
{4r
4g
4g
4g
=8
4g
8f
4e
8d
4e
=9
4f
4e
4d
4c
=10
2d
4r}
{4e
=11
2c
4e
[4d
=12
4d]
4c
4B
8A
8G
=13
4A
4c
4c
4B
=14
2.c}
==
!!!AGN: Romanze, Ballade, Lied, Kriegslied
!! 1607
!!!ONB: ESAC (Essen Associative Code) Database: ALTDEU
!!!AMT: simple quadruple
!!!AIN: vox
!!!EED: Helmut Schaffrath
!!!EEV: 1.0
*-
